_includes/icons/color-html-filetype.svg

<svg fill="#666" height="50" viewBox="0 0 48 48" width="50" xmlns="http://www.w3.org/2000/svg"><path d="m40 45h-32v-42h22l10 10z" fill="#4db6ac"/><path d="m38.5 14h-9.5v-9.5z" fill="#e0f2f1"/><path d="m16 33.953125h-2v-4.257812h-3v4.257812h-1.980469v-9.953125h1.980469v4.027344h3v-4.027344h2zm7-9.953125h-6v1.675781h2v8.277344h2v-8.277344h2zm1.035156 0v9.953125h1.964844v-6.84375l1.851563 6.84375h1.367187l1.78125-6.84375v6.84375h2v-9.953125h-2.585937l-1.875 7.199219-1.878907-7.199219zm11.964844 0h-2v9.953125h5v-1.667969h-3z" fill="#00695c"/></svg>

<svg xmlns="http://www.w3.org/2000/svg" viewBox="0 0 48 48" width="50" height="50" fill="#666"><path d="M 40 45 L 8 45 L 8 3 L 30 3 L 40 13 Z" fill="#4db6ac"/><path d="M 38.5 14 L 29 14 L 29 4.5 Z" fill="#e0f2f1"/><path d="M 16 33.953125 L 14 33.953125 L 14 29.695313 L 11 29.695313 L 11 33.953125 L 9.019531 33.953125 L 9.019531 24 L 11 24 L 11 28.027344 L 14 28.027344 L 14 24 L 16 24 Z M 23 24 L 17 24 L 17 25.675781 L 19 25.675781 L 19 33.953125 L 21 33.953125 L 21 25.675781 L 23 25.675781 Z M 24.035156 24 L 24.035156 33.953125 L 26 33.953125 L 26 27.109375 L 27.851563 33.953125 L 29.21875 33.953125 L 31 27.109375 L 31 33.953125 L 33 33.953125 L 33 24 L 30.414063 24 L 28.539063 31.199219 L 26.660156 24 Z M 36 24 L 34 24 L 34 33.953125 L 39 33.953125 L 39 32.285156 L 36 32.285156 Z" fill="#00695c"/></svg>
